svg/icon/dta.svg

<svg height="32" viewBox="0 0 32 32" width="32" xmlns="http://www.w3.org/2000/svg" xmlns:xlink="http://www.w3.org/1999/xlink"><defs><linearGradient id="a" x1="50%" x2="50%" y1="0%" y2="100%"><stop offset="0" stop-color="#fff" stop-opacity=".5"/><stop offset="1" stop-opacity=".5"/></linearGradient><circle id="b" cx="16" cy="15" r="15"/><filter id="c" height="111.7%" width="111.7%" x="-5.8%" y="-4.2%"><feOffset dy=".5" in="SourceAlpha" result="shadowOffsetOuter1"/><feGaussianBlur in="shadowOffsetOuter1" result="shadowBlurOuter1" stdDeviation=".5"/><feComposite in="shadowBlurOuter1" in2="SourceAlpha" operator="out" result="shadowBlurOuter1"/><feColorMatrix in="shadowBlurOuter1" values="0 0 0 0 0   0 0 0 0 0   0 0 0 0 0  0 0 0 0.199473505 0"/></filter><path id="d" d="m24.9630289 13.5121335.0194758-.0006972.0174953 4.9674127-11.1770822 6.521151-2.9922993-1.6818449v.0014465l-.0184238-.0118018-.0008813-.0004953-2.8113134-1.80091v-13.02262667l3.0731396-1.81320708.0062953.00373141 2.712112-1.67429216 11.1505376 6.5629611zm-3.2754599 3.1123072-2.3383439-1.3390599-7.8073322 4.5941076 2.291884 1.3625185zm-2.865329-1.6408395-4.8162496-2.7580402-.0211895 5.6819084zm-4.8139828-3.3658598 7.7418404 4.5314224v-2.7053615l-7.731815-4.51433678zm-3.1889557 10.9529695.0294158-2.7124672-.0180988.0107922v-9.572061l-2.34557645-1.40125429v12.28049679zm.4155188-3.001085 2.3449732-1.41736v-9.25654529l-2.3449732 1.40125429zm2.8812945 2.0314562-.0470563 2.8357108 10.4368502-6.1362518.0307675-2.8191097zm7.7932503-8.5839891 2.4282267-1.3864978-10.4543454-6.10427941-2.4059051 1.39141663z"/><filter id="e" height="117.5%" width="120.6%" x="-10.3%" y="-6.2%"><feOffset dy=".5" in="SourceAlpha" result="shadowOffsetOuter1"/><feGaussianBlur in="shadowOffsetOuter1" result="shadowBlurOuter1" stdDeviation=".5"/><feColorMatrix in="shadowBlurOuter1" values="0 0 0 0 0   0 0 0 0 0   0 0 0 0 0  0 0 0 0.204257246 0"/></filter></defs><g fill="none" fill-rule="evenodd"><use fill="#000" filter="url(#c)" xlink:href="#b"/><use fill="#74d269" xlink:href="#b"/><use fill="url(#a)" xlink:href="#b"/><circle cx="16" cy="15" r="14.5" stroke="#000" stroke-opacity=".097"/><g fill-rule="nonzero"><use fill="#000" filter="url(#e)" xlink:href="#d"/><use fill="#fff" fill-rule="evenodd" xlink:href="#d"/></g></g></svg>

<svg xmlns="http://www.w3.org/2000/svg" xmlns:xlink="http://www.w3.org/1999/xlink" width="32" height="32" viewBox="0 0 32 32">
  <defs>
    <linearGradient id="dta-c" x1="50%" x2="50%" y1="0%" y2="100%">
      <stop offset="0%" stop-color="#FFF" stop-opacity=".5"/>
      <stop offset="100%" stop-opacity=".5"/>
    </linearGradient>
    <circle id="dta-b" cx="16" cy="15" r="15"/>
    <filter id="dta-a" width="111.7%" height="111.7%" x="-5.8%" y="-4.2%" filterUnits="objectBoundingBox">
      <feOffset dy=".5" in="SourceAlpha" result="shadowOffsetOuter1"/>
      <feGaussianBlur in="shadowOffsetOuter1" result="shadowBlurOuter1" stdDeviation=".5"/>
      <feComposite in="shadowBlurOuter1" in2="SourceAlpha" operator="out" result="shadowBlurOuter1"/>
      <feColorMatrix in="shadowBlurOuter1" values="0 0 0 0 0   0 0 0 0 0   0 0 0 0 0  0 0 0 0.199473505 0"/>
    </filter>
    <path id="dta-e" d="M24.9630289,13.5121335 L24.9825047,13.5114363 L25,18.478849 L13.8229178,25 L10.8306185,23.3181551 L10.8306185,23.3196016 L10.8121947,23.3077998 L10.8113134,23.3073045 L8,21.5063945 L8,8.48376783 L11.0731396,6.67056075 L11.0794349,6.67429216 L13.7915469,5 L24.9420845,11.5629611 L24.9630289,13.5121335 Z M21.687569,16.6244407 L19.3492251,15.2853808 L11.5418929,19.8794884 L13.8337769,21.2420069 L21.687569,16.6244407 Z M18.82224,14.9836012 L14.0059904,12.225561 L13.9848009,17.9074694 L18.82224,14.9836012 Z M14.0082572,11.6177414 L21.7500976,16.1491638 L21.7500976,13.4438023 L14.0182826,8.92946552 L14.0082572,11.6177414 Z M10.8193015,22.5707109 L10.8487173,19.8582437 L10.8306185,19.8690359 L10.8306185,10.2969749 L8.48504205,8.89572061 L8.48504205,21.1762174 L10.8193015,22.5707109 Z M11.2348203,19.5696259 L13.5797935,18.1522659 L13.5797935,8.89572061 L11.2348203,10.2969749 L11.2348203,19.5696259 Z M14.1161148,21.6010821 L14.0690585,24.4367929 L24.5059087,18.3005411 L24.5366762,15.4814314 L14.1161148,21.6010821 Z M21.9093651,13.017093 L24.3375918,11.6305952 L13.8832464,5.52631579 L11.4773413,6.91773242 L21.9093651,13.017093 Z"/>
    <filter id="dta-d" width="120.6%" height="117.5%" x="-10.3%" y="-6.2%" filterUnits="objectBoundingBox">
      <feOffset dy=".5" in="SourceAlpha" result="shadowOffsetOuter1"/>
      <feGaussianBlur in="shadowOffsetOuter1" result="shadowBlurOuter1" stdDeviation=".5"/>
      <feColorMatrix in="shadowBlurOuter1" values="0 0 0 0 0   0 0 0 0 0   0 0 0 0 0  0 0 0 0.204257246 0"/>
    </filter>
  </defs>
  <g fill="none" fill-rule="evenodd">
    <use fill="#000" filter="url(#dta-a)" xlink:href="#dta-b"/>
    <use fill="#74D269" xlink:href="#dta-b"/>
    <use fill="url(#dta-c)" style="mix-blend-mode:soft-light" xlink:href="#dta-b"/>
    <circle cx="16" cy="15" r="14.5" stroke="#000" stroke-opacity=".097"/>
    <g fill-rule="nonzero">
      <use fill="#000" filter="url(#dta-d)" xlink:href="#dta-e"/>
      <use fill="#FFF" fill-rule="evenodd" xlink:href="#dta-e"/>
    </g>
  </g>
</svg>
